brandFactory_export/3.Masa/Nube_almacenamientoNube_3Masa.svg

<?xml version="1.0" encoding="UTF-8"?>
<svg width="24px" height="24px" viewBox="0 0 24 24" version="1.1" xmlns="http://www.w3.org/2000/svg" xmlns:xlink="http://www.w3.org/1999/xlink">
    <title>3.Masa/Nube_almacenamientoNube_3Masa</title>
    <g id="Symbols" stroke="none" stroke-width="1" fill="none" fill-rule="evenodd">
        <g id="3.Masa/Nube_almacenamientoNube_3Masa" fill="#5CB615" fill-rule="nonzero">
            <path d="M10.5882353,4.02352941 C13.4453782,4.02689076 16.0537815,5.6605042 17.3008403,8.23529412 L17.3714286,8.23529412 C20.8235294,8.23529412 23.6302521,11.0420168 23.6302521,14.4941176 C23.6302521,17.9462185 20.8168067,20.7462185 17.3680672,20.7462185 L4.86386555,20.7462185 C2.1815126,20.7462185 -2.00532924e-10,18.5613445 -2.00532924e-10,15.8823529 C-2.00532924e-10,14.7966387 0.376470588,13.7579832 1.08907563,12.8773109 C1.73109244,12.0806723 2.60168067,11.4890756 3.54285714,11.2033613 C3.60672269,9.25042017 4.29579832,7.47226891 5.50252101,6.17478992 C6.78991597,4.78655462 8.59831933,4.02352941 10.5882353,4.02352941 Z" id="Nube_almacenamientoNube_3Masa"></path>
        </g>
    </g>
</svg>

<svg width="24" height="24" viewBox="0 0 24 24" xmlns="http://www.w3.org/2000/svg"><path d="M10.588 4.024a7.468 7.468 0 016.713 4.211h.07a6.265 6.265 0 016.26 6.26c0 3.451-2.814 6.251-6.263 6.251H4.864A4.871 4.871 0 010 15.882c0-1.085.376-2.124 1.09-3.005a5.09 5.09 0 012.453-1.674c.064-1.953.753-3.73 1.96-5.028 1.287-1.388 3.095-2.151 5.085-2.151z" fill="#5CB615" fill-rule="nonzero"/></svg>
